symbols/web/airline_seat_legroom_normal/materialsymbolsrounded/airline_seat_legroom_normal_wght600grad200_24px.svg

<svg xmlns="http://www.w3.org/2000/svg" height="24" width="24"><path d="M19.325 21.55q-1.3 0-2.187-.9-.888-.9-.888-2.175V13.8h-7.6q-1.375 0-2.35-.963-.975-.962-.975-2.337V2.2h7.125v5.95h4.725q1.1 0 1.875.75.775.75.775 1.85v7.075h1.225q.825 0 1.338.512.512.513.512 1.313 0 .825-.512 1.363-.513.537-1.338.537ZM4.55 17.65q-1.275 0-2.175-.888-.9-.887-.9-2.187V3.65q0-.6.425-1.025.425-.425 1-.425.6 0 1.013.425.412.425.412 1.025V14.8h8.325q.6 0 1.013.425.412.425.412 1 0 .6-.412 1.012-.413.413-1.013.413Z"/></svg>

<svg xmlns="http://www.w3.org/2000/svg" height="24" width="24"><path d="M19.325 21.55Q18.025 21.55 17.138 20.65Q16.25 19.75 16.25 18.475V13.8H8.65Q7.275 13.8 6.3 12.837Q5.325 11.875 5.325 10.5V2.2H12.45V8.15H17.175Q18.275 8.15 19.05 8.9Q19.825 9.65 19.825 10.75V17.825H21.05Q21.875 17.825 22.388 18.337Q22.9 18.85 22.9 19.65Q22.9 20.475 22.388 21.013Q21.875 21.55 21.05 21.55ZM4.55 17.65Q3.275 17.65 2.375 16.762Q1.475 15.875 1.475 14.575V3.65Q1.475 3.05 1.9 2.625Q2.325 2.2 2.9 2.2Q3.5 2.2 3.913 2.625Q4.325 3.05 4.325 3.65V14.8Q4.325 14.8 4.325 14.8Q4.325 14.8 4.325 14.8H12.65Q13.25 14.8 13.663 15.225Q14.075 15.65 14.075 16.225Q14.075 16.825 13.663 17.237Q13.25 17.65 12.65 17.65Z"/></svg>
